Arcticons/scalable/apps/screencast.svg

<svg id="Layer_2" data-name="Layer 2" viewBox="0 0 48 48" xmlns="http://www.w3.org/2000/svg">
 <defs>
  <style>.cls-1{fill:none;stroke:#fff;stroke-linecap:round;stroke-linejoin:round;}</style>
 </defs>
 <path class="cls-1" d="m10.35 4.5a2 2 0 0 0-1.95 2v35.1a2 2 0 0 0 1.95 2h27.3a2 2 0 0 0 2-2v-35.15a2 2 0 0 0-2-1.95zm4.36 8.1h14.62a1.61 1.61 0 0 1 1.61 1.61v1.79l4-2.29v9.16l-4-2.29v1.79a1.61 1.61 0 0 1-1.61 1.63h-14.62a1.61 1.61 0 0 1-1.62-1.62v-8.17a1.61 1.61 0 0 1 1.62-1.61zm-0.31 19.62h2.73a1 1 0 0 1 1 1v2.74a1 1 0 0 1-1 1h-2.73a1 1 0 0 1-1-1v-2.77a1 1 0 0 1 1-0.97zm8.23 0h2.74a1 1 0 0 1 1 1v2.74a1 1 0 0 1-1 1h-2.74a1 1 0 0 1-1-1v-2.77a1 1 0 0 1 1-0.97zm8.24 0h2.73a1 1 0 0 1 1 1v2.74a1 1 0 0 1-1 1h-2.73a1 1 0 0 1-1-1v-2.77a1 1 0 0 1 1-0.97z"/>
</svg>

<svg id="Layer_2" data-name="Layer 2" xmlns="http://www.w3.org/2000/svg" viewBox="0 0 48 48"><defs><style>.cls-1{fill:none;stroke:#fff;stroke-linecap:round;stroke-linejoin:round;}</style></defs><path class="cls-1" d="M10.35,4.5a2,2,0,0,0-1.95,2v35.1a2,2,0,0,0,1.95,2h27.3a2,2,0,0,0,2-2V6.45a2,2,0,0,0-2-1.95Zm4.36,8.1H29.33a1.61,1.61,0,0,1,1.61,1.61V16l4-2.29v9.16l-4-2.29v1.79A1.61,1.61,0,0,1,29.33,24H14.71a1.61,1.61,0,0,1-1.62-1.62V14.21a1.61,1.61,0,0,1,1.62-1.61ZM14.4,32.22h2.73a1,1,0,0,1,1,1v2.74a1,1,0,0,1-1,1H14.4a1,1,0,0,1-1-1V33.19A1,1,0,0,1,14.4,32.22Zm8.23,0h2.74a1,1,0,0,1,1,1v2.74a1,1,0,0,1-1,1H22.63a1,1,0,0,1-1-1V33.19A1,1,0,0,1,22.63,32.22Zm8.24,0H33.6a1,1,0,0,1,1,1v2.74a1,1,0,0,1-1,1H30.87a1,1,0,0,1-1-1V33.19A1,1,0,0,1,30.87,32.22Z"/></svg>
